X: 55
T:Top of the Cork Road
% Nottingham Music Database
S:EF
M:6/8
K:D
P:A
A|"D"dAF DFA|"D"ded "A7"cBA|"D"dcd "A/c+"efg|"Bm"fdf "A7"ecA|
"D"dAF DFA|"D"ded "A/c+"cBA|"Bm"dcd "A7"efg|"D"fed d2:|
P:B
e|"D"fdf fga|"A"ecA ABc|"Bm"dcd "E7"Bed|"A7"cBA "D7"A2=c|"G"BGB B
P:.
cd|"D"AFD DFA|"D"dcd "A7"efg|"D"fed d2:|<end>
<start>
